X: 1
T: Polons, sexdregasamlingen del 2 nr 24
S: efter Anders Larsson
B: Sexdregasamlingen del 2 nr 24
B: http://www.smus.se/earkiv/fmk/browselarge.phplang=sw&katalogid=Ma9&bildnr=00013
O: Sexdrega, Vstergtland
R: Slngpolska
Z: 2008-05-31 av Nils L
M: 3/4
K: D
L: 1/16
d2dc d2cB A2GF | G2>B2 ABAG F2ED | F2a2 E2g2 D2f2 | e2>d2 cded c2BA |
e2a^g a2A2 c2e2 | cBA^G A8 :: A2e2 e2dc d2cB | cded cdcB ABAG |
F2a2 a2gf g2fe | fgag fgfe dedc | B2b2 F2a2 E2g2 | fedc d8 :|
